!!!!SEGMENT: pl-wtm--r-90-n--010_noskowski-zygmunt--piesni-op-63-hej-dudu-nie-zalujmy-trudu.krn
!!!cenid: 18xx:2129
!!!COM: Noskowski, Zygmunt
!!!COM-rismid: pe106604
!!!CDT: 1846/05/02-1909/07/23
!!!CNT: Polish
!!!GTL: Pieśni op. 63
!!!OTL: Hej dudu nie żałujmy trudu
!!!PDT: 1899
!!!AGN: Secular; Song
!!!SMS-siglum: PL-Wtm
!!!SMS-shelfmark: R 90/N
!!!SMS-shelfwork: 010 G
!!!SMS-variant:
!!!SMS-altvar:
!!!NIFC-rismid: 1001100018
!!!URL-scan: http://repozytorium.nifc.pl/skany/pl-wtm-nut--r90n
!!!ONB-nifc: UWAGA: w zbiorze 10 krótkich pieśni
**kern	**kern	**text
*part1	*part1	*part1
*staff2	*staff1	*staff1
*Ipiano	*Ipiano	*
*I"[Piano]	*I"[Piano]	*
*clefF4	*clefG2	*
*k[b-]	*k[b-]	*
*F:	*F:	*
*M3/4	*M3/4	*
=1	=1	=1
!	!LO:TX:a:i:t=Allegretto.	!
!	!LO:TX:a:t=P:problem: 8, 4\right	!
4F\ 4A 4c	(<8f/L	Hej
.	8a/J)	.
4F\ 4A 4c	4.cc\	du
4F\ 4G 4d	.	.
.	8bn/	du
=2	=2	=2
4F\ 4A 4c	8g/L	du
.	8a/J	.
4F\ 4A 4c	2f/	du
4D\ 4A 4c	.	.
=3	=3	=3
4E\ 4G 4c	8g/	Nie
.	8a/	ża-
4E\ 4G 4c	4.b-X/	-łuj-
4C\ 4G 4c	.	.
.	8g/	-my
=4	=4	=4
4F\ 4A 4c	(<8dd/L	tru-
.	8cc/J)	.
4F\ 4A 4c	2a/	-du
4F\ 4A 4c	.	.
=5	=5	=5
4r	(<8b-/L	A
.	8a/J)	.
4C\ 4B-	4e/ 4g	graj-
4C\ 4B-	4e/ 4a	-my
=6	=6	=6
4F\ 4A	4f/	z wer-
4F\ 4A	2cc\	-wą
4F\ 4A	.	.
!!LO:LB:g=original
=7	=7	=7
4D\	8b-\	Aż
.	8a/	się
4F\ 4B-	4b-\	stru-
4BB-/	4f/ 4dd	-ny
=8	=8	=8
4AA/	4f\ 4cc	zer-
4F\ 4A	2ff\	-wą
4D\	.	.
=9	=9	=9
4E\	(>8cc\L	A
.	8dd\J)	.
4G\ 4c	4g/	graj-
4C/	4e/ 4b-	-my
=10	=10	=10
8D\L	4f/ 4a	z wer-
8E\J	.	.
2AA/ 2F	2c/ 2cc	-wą
=11	=11	=11
*	*^	*
4r	8c/	2rcyy	Aż
.	8e/	.	się
4F\ 4B-	4g/	.	stru-
4C\ 4B-	8a/L	4e\	-ny
.	8b-/J	.	.
*	*v	*v	*
=12	=12	=12
4F\ 4A	4f/ 4a	zer-
!LO:TX:b:i:t=Skończyłem o godz 1ej z południa\nna tenże sam dzień JNosk\nCzy to wiedza, czy też natchnienie?...	!	!
2F\ 2A 2c	2f/	-wą
==	==	==
*-	*-	*-
!!!system-decoration: {(s1,s2)}
!!!RDF**kern: > = above
!!!RDF**kern: < = below
!!!EED: Antoni Szymański
!!!EST: 2021-06-05
!!!ENC: Mateusz Solarz
!!!END: 2021-05-12
